X:1
T:Serra
C:Stadsmusikant Höök
R:Serra
Z:David Rönnlund, 09-02-20
O:Jönköping,Småland
N:Stadsmusikant Höök, 1718
S:Efter Andreas Höök
B: Andreas Hööks notbok
M:3/4
L:1/8
K:C
V:1 
|:e2 fedc|a2a4|g2 agfe|f2 gfed|efe2c2:|
M:3/4
|:e2 fedc|d2d4|c2dcBA|B2B4|e2fedc|d2edcB|c2c4:|
V:2 
|:C2A,4|F2fedc|e2c2A2|D2B2G2|c2C4:|
M:3/4
|:C2C4|G,2 GABG|A2^F4|G,2GFED|C2A,4|B,2G,4|C2C,4:|

